X:1
T:Title
%%score 1 { 2 | 3 }
L:1/8
Q:1/4=107
M:4/4
K:Ab
V:1 treble nm="Grand Piano, Soprano"
V:2 bass nm="Choir Pad, Kneeling at the Threshold"
V:3 bass 
V:1
 [CE]2 [CE]2- [CE][CE] [DF]2- | [DF][CE] [CE]2 [A,C]2 z2 | [A,C]2 [CE]2 [CA]2 [Ec]2 | [EA]2 [EB]6 | %4
w: By~Charles~Crozat~Converse,~1870 * * * *||||
 z2 [Ec]2- [Ec][Ec] [EB]2 | [EA]2 [FA]2 [DF]2 z2 | [DF]2 [CE]2 [EA]2 [EA]2- | [EA][EB] [EA]4 z2 | %8
w: ||||
 [EA]2 [GB]2- [GB][GB] [FA]2 | [GB]2 [Ac]2 A2 z2 | [Ac]2 [Ae]2- [Ae][Ac] [Ac]2 | A2 [GB]4 z2 | %12
w: ||||
 [Ac]2 [Ae]2- [Ae][Ac] [Ac]2 | [EA]2 [FA]2 [DF]2 z2 | [DF]2 [CE]2 [EA]2 [EA]2- | [EA][EB] [EA]6 | %16
w: ||||
 z2 [Ec]2- [Ec][Ec] [Ec]2 | [Ec]2 [Fd]2 [Ec]4- | [Ec]2 [FA]2- [FA][FA] [FA]2 | [FA]2 [GB]6 | %20
w: ||||
 z2 [Ec]2- [Ec][Ec] [EB]2 | [EA]2 [FA]2 [DF]2 z2 | [DF]2 [CE]2 [EA]2 [EA]2- | [EA][EB] [EA]6- | %24
w: ||||
 [EA]2 z2 z4 |] %25
w: |
V:2
 A,2 A,2- A,A, A,2- | A,A, A,2 E,2 z2 | A,2 A,2 E,2 A,2 | A,2 G,6 | z2 A,2- A,A, G,2 | %5
 A,2 A,2 A,2 z2 | A,2 A,2 C2 C2- | CD C4 z2 | C2 E2- EE C2 | E2 E2 C2 z2 | C2 C2- CE E2 | %11
 C2 E4 z2 | E2 C2- CE E2 | C2 D2 A,2 z2 | A,2 A,2 C2 C2- | CD C6 | z2[K:bass] A,2- A,A, A,2 | %17
 A,2 A,2 A,4- | A,2[K:treble] C2- CC C2 | C2 E6 | z2[K:bass] A,2- A,A, G,2 | A,2 A,2 A,2 z2 | %22
 A,2 A,2 C2 C2- | CD C6- | C2 z2 z4 |] %25
V:3
 A,,2 A,,2- A,,A,, D,2- | D,A,, A,,2 A,,2 z2 | A,,2 A,,2 A,,2 A,,2 | C,2 E,6 | %4
 z2 A,,2- A,,A,, B,,2 | C,2 D,2 D,2 z2 | D,2 E,2 E,2 E,2- | E,E, A,,4 z2 | A,2 E,2- E,E, F,2 | %9
 E,2 A,2 A,2 z2 | A,2 A,2- A,A, A,2 | A,2 E,4 z2 | A,2 A,2- A,A, A,2 | A,2 D,2 D,2 z2 | %14
 D,2 E,2 E,2 E,2- | E,E, A,,6 | z2 A,,2- A,,A,, A,,2 | A,,2 A,,2 A,,4- | A,,2 F,2- F,F, F,2 | %19
 F,2 E,6 | z2 A,,2- A,,A,, B,,2 | C,2 D,2 D,2 z2 | D,2 E,2 E,2 E,2- | E,E, A,,6- | A,,2 z2 z4 |] %25

